X: 1868
T: Telgırafın Tellerine...
C: (Anonim)
O: Turkey
F: http://compmusic.upf.edu/node/140
N: ussak--kanto--sofyan--telgirafin_tellerine--
N: makam= ussak
N: form= kanto
N: usul= sofyan = 4/4
M: 4/4
L: 1/16
K: C _2/4B   
Q: 1/4=72
%%MIDI tuningsystem comma53
z.G.B.c d2d2 z.G.B.c d2d2  | zABc dedc cB2A BcA2  | 
w:   |   | 
z.G.B.c d2d2 z.G.B.c d2d2  | zABc dedc cB2A BcA2  | 
w:   |   | 
zc2d dd2B c2c{d}B A2Ac  | B2BA G2d2 dcBA Bcd2  | 
w:  Tel gı ra fın  *  tel le *  *  ri ne   |  kuş lar  *  mı  ko nar    | 
z2cd d2dB c2c{d}B A2c2  | B2BA G2BA A8  | \
w:  Her kes  sev di *  ği ne  *  *  yâ rim   |  böy le  *  mi  ya *  nar    | 
zc2d dd2B c2c{d}B A2Ac  | 
w:  Tel gı ra fın  *  tel le *  *  ri ne   | 
B2BA G2d2 dcBA Bcd2  | z2cd d2dB c2c{d}B A2c2  | 
w:  kuş lar  *  mı  ko nar    |  Her kes  sev di *  ği ne  *  *  yâ rim   | 
B2BA G2BA A8  | z2cd dd2B cc2B A2c2  | \
w:  böy le  *  mi  ya *  nar    |  Ya nı ma  gel  *  ya nı *  ma  da   | 
BBBA G2d2 dcBA Bcd2  | 
w:  ya nı  ya nı  ba şı ma    | 
z2cd d2dB cc2B A2c2  | B2BA G2BA A8  | \
w:  Şu  genç lik te  *  ne ler  *  gel di   |  ca hil  *  ba şı *  ma    | 
z2cd dd2B cc2B A2c2  | 
w:  Ya nı ma  gel  *  ya nı *  ma  da   | 
BBBA G2d2 dcBA Bcd2  | z2cd d2dB cc2B A2c2  | 
w:  ya nı  ya nı  ba şı ma    |  Şu  genç lik te  *  ne ler  *  gel di   | 
B2BA G2BA A8  | z.G.B.c d2d2 z.G.B.c d2d2  | \
w:  ca hil  *  ba şı *  ma    |   | 
zABc dedc cB2A BcA2  | 
w:   | 
z.G.B.c d2d2 z.G.B.c d2d2  | zABc dedc cB2A BcA2  | 
w:   |   | 
zc2d dd2B c2c{d}B A2Ac  | B2BA G2d2 dcBA Bcd2  | 
w:  Tel gı ra fın  *  tel le *  *  ri ne   |  kuş lar  *  mı  ko nar    | 
z2cd d2dB c2c{d}B A2c2  | B2BA G2BA A8  | \
w:  Her kes  sev di *  ği ne  *  *  yâ rim   |  böy le  *  mi  ya *  nar    | 
zc2d dd2B c2c{d}B A2Ac  | 
w:  Tel gı ra fın  *  tel le *  *  ri ne   | 
B2BA G2d2 dcBA Bcd2  | z2cd d2dB c2c{d}B A2c2  | 
w:  kuş lar  *  mı  ko nar    |  Her kes  sev di *  ği ne  *  *  yâ rim   | 
B2BA G2BA A8  | z2cd dd2B cc2B A2c2  | \
w:  böy le  *  mi  ya *  nar    |  Ya nı ma  gel  *  ya nı *  ma  da   | 
BBBA G2d2 dcBA Bcd2  | 
w:  ya nı  ya nı  ba şı ma    | 
z2cd d2dB cc2B A2c2  | B2BA G2BA A8  | \
w:  Şu  genç lik te  *  ne ler  *  gel di   |  ca hil  *  ba şı *  ma    | 
z2cd dd2B cc2B A2c2  | 
w:  Ya nı ma  gel  *  ya nı *  ma  da   | 
BBBA G2d2 dcBA Bcd2  | z2cd d2dB cc2B A2c2  | 
w:  ya nı  ya nı  ba şı ma    |  Şu  genç lik te  *  ne ler  *  gel di   | 
B2BA G2BA A8  | |


